!!!COM: Robert Schumann
!!!CNT: Deutscher
!!!TXO: Deutsche 
!!!OTL: Mondnacht
!!!OPR: Liederkreis
!!!OPS: Opus 39
!!!ONM: No. 5
!!!LYR: Eichendorff
!!!ENC: Brian Bice
!!!YOR: Sa2mtliche Lieder, vol. 1, C.F. Peters
!!!ODT: 1840/
!!NB: Vocal melody and text only encoded.
**kern	**silbe
*clefG2	*
*k[f#c#g#d#]	*
*M3/8	*
=6	=6
8r	.
8r	.
{8cc#	{Es
=7	=7
4cc#	war
8cc#	als
=8	=8
([8cc#	ha2tt'
16cc#]	|
16dd#	|
16ee#)	|
16ff#	der
=9	=9
4ff#	Him-
8b}	-mel}
=10	=10
8r	.
8r	.
{8b	{die
=11	=11
4ee	Er-
8b	-de
=12	=12
(4g#M	still
16f#)	|
16e	ge-
=13	=13
4.b}	-ku2sst,}
=15	=15
{8cc#	{dass
8cc#	sie
16r	.
16cc#	im
=16	=16
([8cc#	Blu2-
16cc#]	|
16dd#	|
16ee#)	|
16ff#	-ten-
=17	=17
4ff#	-schim-
8b}	-mer}
=18	=18
8r	.
8r	.
{8b	{von
=19	=19
4ee	ihm
8b	mur
=20	=20
(4g#M	tra2u-
16f#)	|
16e	-men
=21	=21
[4.b	mu2sst'.
=22	=22
4b]}	|}
8r	.
=28	=28
8r	.
8r	.
{8cc#	{Die
=29	=29
4cc#	Luft
8cc#	ging
=30	=30
([8cc#	durch
16cc#]	|
16dd#	|
16ee#)	|
16ff#	die
=31	=31
4ff#	Fel-
8b}	-der,}
=32	=32
8r	.
8r	.
{8b	{die
=33	=33
4ee	A2h-
8b	-ren
=34	=34
(4g#M	wog-
16f#)	|
16e	-ten
=35	=35
4.b}	sacht,}
=36	=36
8r	.
8r	.
{8cc#	{es
=37	=37
4cc#	rausch-
8cc#	-ten
=38	=38
([8cc#	leis'
16cc#]	|
16dd#	|
16ee#)	|
16ff#	die
=39	=39
4ff#	Wa2l-
8b}	-der,}
=40	=40
8r	.
8r	.
{8b	{so
=41	=41
4ee	stern-
8b	-klar
=42	=42
(4g#M	war
16f#)	|
16e	die
=43	=43
4.b}	Nacht.}
=44	=44
8r	.
8r	.
{8b	{Und
=45	=45
4b	mei-
8b	-ne
=46	=46
([8b	See-
16b]	|
16f#	|
g#q	|
f#q	|
16e#)	|
16f#	-le
=47	=47
4a	span-
8g#	-te
=49	=49
8b	weit
8.b	ih-
16b	-re
=50	=50
4ee	Flu2-
8b#	-gel
=51	=51
[4.cc#	aus,
=52	=52
4cc#]}	|}
8r	.
=53	=53
{8cc#	{flog
8.cc#	durch
16cc#	die
=54	=54
([8cc#	stil-
16cc#]	|
16dd#	|
16ee#)	|
16ff#	-len
=55	=55
4ff#	Lan-
8b}	-de,}
=56	=56
8r	.
8r	.
{8b	{als
=57	=57
4ee	flo2-
[8b	-ge
=58	=58
8b]	|
8g#	sie
8f#	nach
=59	=59
[4.e	Haus.
=60	=60
4e]}	|}
8r	.
*-	*-
